fs/bluetooth_connected_24_regular.svg

<svg viewBox="0 0 24 24" fill="none" xmlns="http://www.w3.org/2000/svg" height="1em" width="1em">
  <path d="M10.0043 9.60811V3.75346C10.0043 3.10666 10.7564 2.77855 11.2293 3.17236L11.3054 3.24475L16.017 8.34907C16.2839 8.63814 16.2789 9.07804 16.0223 9.36095L15.946 9.43399L12.8692 11.9976L15.9463 14.564C16.2483 14.8159 16.3006 15.2524 16.0832 15.5663L16.0172 15.6486L11.3055 20.7552C10.8668 21.2307 10.0915 20.9616 10.0111 20.3514L10.0043 20.2466V14.3845L8.88374 15.3181C8.56551 15.5833 8.09259 15.5402 7.82745 15.222C7.58641 14.9327 7.60006 14.5156 7.84363 14.2429L7.92357 14.1657L10.0043 12.4321V11.5614L7.92328 9.82572C7.60518 9.56041 7.56239 9.08747 7.82769 8.76937C8.06888 8.48019 8.48167 8.41854 8.79372 8.60904L8.88404 8.67379L10.0043 9.60811V3.75346V9.60811ZM11.6976 12.9737L11.5043 13.1348V18.3278L14.38 15.2109L11.6976 12.9737ZM17 11C17.5523 11 18 11.4478 18 12C18 12.5523 17.5523 13 17 13C16.4477 13 16 12.5523 16 12C16 11.4478 16.4477 11 17 11ZM6 11C6.55228 11 7 11.4478 7 12C7 12.5523 6.55228 13 6 13C5.44772 13 5 12.5523 5 12C5 11.4478 5.44772 11 6 11ZM11.5043 5.6717V10.8592L11.6981 11.0208L14.3796 8.78667L11.5043 5.6717Z" fill="#212121"/>
</svg>

<svg viewBox="0 0 24 24" fill="none" xmlns="http://www.w3.org/2000/svg" height="1em" width="1em">
  <path d="M10.004 9.608V3.753c0-.646.752-.974 1.225-.58l.076.072 4.712 5.104a.75.75 0 0 1 .005 1.012l-.076.073-3.077 2.564 3.077 2.566a.75.75 0 0 1 .137 1.002l-.066.083-4.711 5.106a.75.75 0 0 1-1.295-.404l-.007-.104v-5.863l-1.12.934a.75.75 0 0 1-1.04-1.075l.08-.077 2.08-1.734v-.87l-2.08-1.736a.75.75 0 0 1 .87-1.217l.09.065 1.12.934V3.753v5.855Zm1.694 3.366-.194.16v5.194l2.876-3.117-2.682-2.237ZM17 11a1 1 0 1 1 0 2 1 1 0 0 1 0-2ZM6 11a1 1 0 1 1 0 2 1 1 0 0 1 0-2Zm5.504-5.328v5.187l.194.162 2.682-2.234-2.876-3.115Z" fill="#212121"/>
</svg>
